packages/foundations/assets/icons/functional/images/arrows/arrow_up_20.svg

<svg width="20" height="20" viewBox="0 0 20 20" fill="none" xmlns="http://www.w3.org/2000/svg">
<g clip-path="url(#clip0_77_487)">
<path fill-rule="evenodd" clip-rule="evenodd" d="M10.688 3.31305C10.6035 3.21337 10.498 3.13362 10.379 3.07951C10.2601 3.02539 10.1307 2.99826 9.99999 3.00005C9.74999 3.00005 9.49999 3.09405 9.28099 3.31305L4.28099 8.28105C4.0989 8.47602 3.99835 8.73329 3.99999 9.00005C3.99999 9.56305 4.43799 10.0001 4.99999 10.0001C5.24999 10.0001 5.49999 9.90605 5.68799 9.71905L8.99999 6.40605V16.0001C8.99999 16.5631 9.43799 17.0001 9.99999 17.0001C10.531 17.0001 11 16.5621 11 16.0001V6.40605L14.281 9.71905C14.5 9.90605 14.75 10.0001 15 10.0001C15.531 10.0001 16 9.56205 16 9.00005C16.0021 8.76894 15.922 8.5446 15.774 8.36705L10.688 3.31305Z" fill="#1A1C1F"/>
</g>
<defs>
<clipPath id="clip0_77_487">
<rect width="20" height="20" fill="white"/>
</clipPath>
</defs>
</svg>

<svg xmlns="http://www.w3.org/2000/svg" width="20" height="20" fill="none"><g clip-path="url(#a)"><path fill="#1A1C1F" fill-rule="evenodd" d="M10.688 3.313A.89.89 0 0 0 10 3c-.25 0-.5.094-.719.313l-5 4.968A1.04 1.04 0 0 0 4 9c0 .563.438 1 1 1 .25 0 .5-.094.688-.281L9 6.406V16c0 .563.438 1 1 1 .531 0 1-.438 1-1V6.406l3.281 3.313c.219.187.469.281.719.281.531 0 1-.438 1-1a.98.98 0 0 0-.226-.633z" clip-rule="evenodd"/></g><defs><clipPath id="a"><path fill="#fff" d="M0 0h20v20H0z"/></clipPath></defs></svg>
